vendor/shopware/storefront/Resources/app/storefront/dist/assets/icon/default/map-closed.svg

<svg xmlns="http://www.w3.org/2000/svg" width="24" height="24" viewBox="0 0 24 24">
  <path fill="#758CA3" fill-rule="evenodd" d="M9.92963248,4 L4,4 C3.44771525,4 3,4.44771525 3,5 L3,19 C3,19.5522847 3.44771525,20 4,20 L20,20 C20.5522847,20 21,19.5522847 21,19 L21,8 C21,7.44771525 20.5522847,7 20,7 L11.9296325,7 L9.92963248,4 Z M4,2 L10.4648162,2 C10.7991694,2 11.1114008,2.16710114 11.2968665,2.4452998 L13,5 L20,5 C21.6568542,5 23,6.34314575 23,8 L23,19 C23,20.6568542 21.6568542,22 20,22 L4,22 C2.34314575,22 1,20.6568542 1,19 L1,5 C1,3.34314575 2.34314575,2 4,2 Z"/>
</svg>

<svg xmlns="http://www.w3.org/2000/svg" width="24" height="24" viewBox="0 0 24 24"><path fill="#758CA3" fill-rule="evenodd" d="M9.9296 4H4c-.5523 0-1 .4477-1 1v14c0 .5523.4477 1 1 1h16c.5523 0 1-.4477 1-1V8c0-.5523-.4477-1-1-1h-8.0704l-2-3zM4 2h6.4648a1 1 0 0 1 .832.4453L13 5h7c1.6569 0 3 1.3431 3 3v11c0 1.6569-1.3431 3-3 3H4c-1.6569 0-3-1.3431-3-3V5c0-1.6569 1.3431-3 3-3z"/></svg>
